X: 305576
T: JULIA'S FAVORITE
C:
%R: jig
B: Elias Howe "The Musician's Companion" Part 3 1844 p.65 #4
S: http://imslp.org/wiki/The_Musician's_Companion_(Howe,_Elias)
S: https://archive.org/stream/firstthirdpartof03howe/#page/66/mode/1up
Z: 2015 John Chambers <jc:trillian.mit.edu>
M: 6/8
L: 1/8
K: Gm
% - - - - - - - - - - - - - - - - - - - - - - - - -
G/A/ |\
BAG (dG)G | BAG FGA | BAG (BG)G | BAF G2 G/A/ |\
BAG (dG)G | BAG FGA | Geg ded | c[BA][AF] G2 :|
|: (d/e/) |\
fgf fed | cdc cBA | Ggg g^fg | agg gde |\
fgf fed | cdc cBA | Ggg ded | cAF G2 :|
% - - - - - - - - - - - - - - - - - - - - - - - - -


